X:1027
T:Skalloway Joe Waltz
C:Joe Buchanan's Scottish Tome - Page 617.0
I:617 0
Z:Carl Allison
C:Ronald Cooper
R:Waltz
L:1/4
M:3/4
K:G
D | "G"B2 d | "D7"B2 A | "C"G F E | "G"D2 D | "D7"c2 c | "G"B2 d |
"Am"d c B | "D7"A2 D | "G"B2 d | "B7"B2 A | "C"G F "Am"E | "D7"D2 c |
"G"B d2 | "D7"A2 B | "G"[G3(E] D C | [GB,]2) D | B2 d | "B7"B2 A |
"C"G F E | "G"D2 D | "D7"c2 c | "G"B2d | "Am"d c B | "D7"A2 D |
"G"B2 d | "B7"B2 A | "C"G F "Am"E | "D7"D2 c | "G"B d2 | "D7"A2 B |
"G"[G3(E] D C | [GB,]2) d | "G"g3 | "G7"d2G | "C"c d e | "G"d2 d |
"Em"g3 | "Bm"B2 d | "Am"d c B | "D7"A2 d | "G"g3 | "G7"d2 G | 
"C"c d e | "D7"d2 c | "G"B d2 | "D7"A2 B | "G"G3- | G2 d |
g3 | "G7"d2 G | "C"c d e | "G"d2 d | "Em"g3 | "Bm"B2 d | 
"Am"d c B | "D7"A2 D | "G"B2 d | "D7"B2 A | "C"G F "Am"E | "D7"D2 c | 
"C"B d2 | "D7"A2 B | "G"G3- | G2 | x3 | x3 | 

